X:1
T:Maria durch ein Dornwald ging
T:Maria durch ein Dornwald ging
T:Satz für 2 Frauenstimmen und 1 Männerstimme
T:Satz von Cesar Bresgen, 1913
C:Satz von Cesar Bresgen, 1913
%%score [ 1 2 3 ]
L:1/8
Q:1/4=96
M:4/4
K:F
V:1 treble nm="Soprano" snm="S."
V:2 treble nm="Alto" snm="A."
V:3 bass nm="Bass" snm="B."
V:1
 A,2 | D3 E F2 A2 | F2 ED (E2 E2) | F2 FF G4 | A6 FG | A3 G A2 (BA) | G3 F G2 AG | F3 E F2 GF | %8
w: 1.Ma-|ri- a durch ein|Dorn- wald * ging *|Ky- rie e- lei-|son. Ma- *|ri- a durch ein *|Dorn- wald ging, der *|hat siebn Jahr kein *|
w: 2.Was|trug Ma- ri- a|un- ter dem Her- zen?||* Als *|klei- nes Kind- lein *|oh- ne Schmerz, das *|trug Ma- ri- a *|
w: 3.Da|habn die Dor- nen|Ro- sen ge- tra- gen.|||sie das Kind durch den|Wald ge- tragn, da *|habn die Dor- nen *|
 (E2 E)D E2 !breath!E2 | D3 E F2 A2 | (F2 E2) !fermata!D2 |] %11
w: Laub * ge- tra- gen.|Je- sus und Ma-|ri- * a.|
w: un- ter dem Her- zen.|||
w: Ro- sen ge- tra- gen.|||
V:2
 A,2 | D3 E F2 A2 | F2 ED (E2 E2) | F2 EE D4 | E6 DE | F3 E F2 (GF) | E3 D E2 FE | D3 C D2 D2 | %8
w: 1.Ma-|ri- a durch ein|Dorn- wald * ging *|Ky- rie e- lei-|son. Ma- *|ri- a durch ein *|Dorn- wald ging, der *|hat siebn Jahr kein|
w: 2.Was|trug Ma- ri- a|un- ter dem Her- zen?||* Ein *|klei- nes Kind- lein *|oh- ne Schmerz, das *|trug Ma- ri- a|
w: 3.Da|habn die Dor- nen|Ro- sen ge- tra- gen.||* Als *|sie das Kind durch den|Wald ge- tragn, da *|habn die Dor- nen|
 EFAF E2 !breath!E2 | D3 D D2 C2 | C4 !fermata!A,2 |] %11
w: Laub * * ge- tra- gen.|Je- sus und Ma-|ri- a.|
w: un- * ter dem Her- zen.|||
w: Ro- * sen ge- tra- gen.|||
V:3
 z2 | z8 | z8 | D2 CC B,4 | (A,8 | (A,8) | A,6) A,2 | (B,3 C B,2) G,2 | !breath!A,8 | %9
w: |||Ky- rie e- lei-|so-|o-|on e-|le- * * i-|son.|
 D3 C B,2 F,2 | G,4 !fermata!D,2 |] %11
w: Je- sus und Ma-|ri- a.|

